launcher/android/assets/skins/day/svg/whereigo.svg

<svg enable-background="new 0 0 220.00 220.00" height="220" viewBox="0 0 220 220" width="220" xmlns="http://www.w3.org/2000/svg"><g stroke-linejoin="round" stroke-width=".2"><g fill="#808080"><path d="m115.231 29.471c17.486 1.3368 30.578 6.7737 42.925 14.9341l11.184-14.6548c-14.819-11.1839-32.893-18.2215-52.53-19.4074z"/><path d="m27.6381 91.0484c.837-3.1376 1.8592-6.1895 3.0547-9.1472l-13.1265-4.5162c-1.1875 3.5276-2.1799 7.1441-2.9645 10.8368z"/><path d="m100.016 196.864c-2.2688-.366-4.5101-.814-6.7206-1.34l-1.3618 8.599c2.4233.485 4.8764.881 7.3552 1.187z"/><path d="m82.418 192.221c-14.66-5.455-27.5116-14.473-37.325-25.971l-7.5696 7.061c11.3633 12.524 25.9388 22.125 42.3421 27.604z"/><path d="m40.0109 159.684c-1.5837-2.263-3.0581-4.602-4.4159-7.011l-9.2863 5.613c1.6388 2.704 3.4068 5.322 5.2948 7.847z"/><path d="m193.644 130.913c-1.132 6.246-2.757 12.274-4.988 17.99l6.007 2.858c2.627-6.206 4.491-12.691 5.495-19.312z"/><path d="m185.531 155.902c-2.728 5.375-6.095 10.407-10.212 15.004l4.682 4.194c4.302-4.93 8.029-10.287 11.101-15.949z"/><path d="m168.598 177.437c-1.924 1.629-3.972 3.183-6.151 4.657l4.091 5.579c2.246-1.705 4.402-3.508 6.463-5.398z"/><path d="m189.559 83.4358c1.726 5.2201 3.335 12.708 4.827 24.1252l5.562-.053c-1.461-11.5968-3.337-19.7206-5.463-25.5878z"/><path d="m179.204 67.1187c3.186 2.9304 6.058 4.3619 8.619 10.6988l4.099-1.0326c-2.931-6.6208-6.434-9.0234-9.879-10.9742z"/><path d="m200.835 115.817-5.514-.432c.034.309.068.619.101.933-.146 2.123-.334 4.23-.57 6.318l6.13.851c.083-2.549.035-5.108-.147-7.67z"/><path d="m111.631 206.068c16.696 0 32.042-4.431 45.132-11.924l-3.734-6.599c-10.233 5.043-22.74 8.671-37.96 10.522-3.002 0-5.973-.141-8.905-.418l-.139 8.263c1.857.103 3.726.156 5.606.156z"/><path d="m12.4642 108.651c0 14.616 3.2647 28.41 9.086 40.769l10.0799-4.749c-4.3192-10.034-6.7077-21.036-6.7077-32.603 0-4.393.3376-8.676.989-12.833l-12.8509-1.4408c-.3939 3.5648-.5963 7.1878-.5963 10.8568z"/><path d="m172.422 55.0677c4.274-2.2957 14.212-8.6678 12.059-11.1553-2.122-2.4512-4.363-4.7954-6.712-7.0236l-12.188 12.7862c2.273 1.7157 4.545 3.5161 6.841 5.3927z"/><path d="m96.3116 11.25 2.4462 19.3249c2.3162-.3559 4.6632-.6329 7.0362-.828l-.706-19.4123c-2.961.1743-5.8881.4815-8.7764.9154z"/><path d="m20.8815 68.8756 13.0988 5.9382c11.1862-21.256 31.831-36.6937 56.8154-42.6778l-4.3935-18.8658c-29.2423 7.5631-53.4001 28.3336-65.5207 55.6054z"/></g><ellipse cx="109.297" cy="113.401" fill="#12508c" rx="76.5" ry="77"/><path d="m77.7968 108.561 61.6662-25.3332-26 62.6672z" fill="#fff"/><path d="m200.63 54.2105h-5.6v15.9599h-4.48v-15.9599h-5.6v-3.64h15.68z"/><path d="m225.55 70.1704h-4.48v-11.7293c0-1.266.057-2.6645.17-4.1957h-.109c-.228 1.2046-.433 2.0708-.617 2.5989l-4.594 13.3261h-3.609l-4.677-13.1906c-.128-.3557-.334-1.2672-.617-2.7344h-.122c.116 1.9338.175 3.6298.175 5.0881v10.8369h-3.92v-19.5999h6.409l4.003 11.62c.321.9273.554 1.8608.7 2.7999h.083c.245-1.085.505-2.0285.779-2.8306l4.003-11.5893h6.423z"/></g></svg>

﻿<?xml version="1.0" encoding="utf-8"?>
<!DOCTYPE svg PUBLIC "-//W3C//DTD SVG 1.1//EN" "http://www.w3.org/Graphics/SVG/1.1/DTD/svg11.dtd">
<svg xmlns="http://www.w3.org/2000/svg" xmlns:xlink="http://www.w3.org/1999/xlink" version="1.1" baseProfile="full" width="220" height="220" viewBox="0 0 220.00 220.00" enable-background="new 0 0 220.00 220.00" xml:space="preserve">
	<g>
		<path fill="#808080" fill-opacity="1" stroke-width="0.2" stroke-linejoin="round" d="M 115.231,29.471C 132.717,30.8078 145.809,36.2447 158.156,44.4051L 169.34,29.7503C 154.521,18.5664 136.447,11.5288 116.81,10.3429L 115.231,29.471 Z "/>
		<path fill="#808080" fill-opacity="1" stroke-width="0.2" stroke-linejoin="round" d="M 27.6381,91.0484C 28.4751,87.9108 29.4973,84.8589 30.6928,81.9012L 17.5663,77.385C 16.3788,80.9126 15.3864,84.5291 14.6018,88.2218L 27.6381,91.0484 Z "/>
		<path fill="#808080" fill-opacity="1" stroke-width="0.2" stroke-linejoin="round" d="M 100.016,196.864C 97.7472,196.498 95.5059,196.05 93.2954,195.524L 91.9336,204.123C 94.3569,204.608 96.81,205.004 99.2888,205.31L 100.016,196.864 Z "/>
		<path fill="#808080" fill-opacity="1" stroke-width="0.2" stroke-linejoin="round" d="M 82.418,192.221C 67.758,186.766 54.9064,177.748 45.093,166.25L 37.5234,173.311C 48.8867,185.835 63.4622,195.436 79.8655,200.915L 82.418,192.221 Z "/>
		<path fill="#808080" fill-opacity="1" stroke-width="0.2" stroke-linejoin="round" d="M 40.0109,159.684C 38.4272,157.421 36.9528,155.082 35.595,152.673L 26.3087,158.286C 27.9475,160.99 29.7155,163.608 31.6035,166.133L 40.0109,159.684 Z "/>
		<path fill="#808080" fill-opacity="1" stroke-width="0.2" stroke-linejoin="round" d="M 193.644,130.913C 192.512,137.159 190.887,143.187 188.656,148.903L 194.663,151.761C 197.29,145.555 199.154,139.07 200.158,132.449L 193.644,130.913 Z "/>
		<path fill="#808080" fill-opacity="1" stroke-width="0.2" stroke-linejoin="round" d="M 185.531,155.902C 182.803,161.277 179.436,166.309 175.319,170.906L 180.001,175.1C 184.303,170.17 188.03,164.813 191.102,159.151L 185.531,155.902 Z "/>
		<path fill="#808080" fill-opacity="1" stroke-width="0.2" stroke-linejoin="round" d="M 168.598,177.437C 166.674,179.066 164.626,180.62 162.447,182.094L 166.538,187.673C 168.784,185.968 170.94,184.165 173.001,182.275L 168.598,177.437 Z "/>
		<path fill="#808080" fill-opacity="1" stroke-width="0.2" stroke-linejoin="round" d="M 189.559,83.4358C 191.285,88.6559 192.894,96.1438 194.386,107.561L 199.948,107.508C 198.487,95.9112 196.611,87.7874 194.485,81.9202L 189.559,83.4358 Z "/>
		<path fill="#808080" fill-opacity="1" stroke-width="0.2" stroke-linejoin="round" d="M 179.204,67.1187C 182.39,70.0491 185.262,71.4806 187.823,77.8175L 191.922,76.7849C 188.991,70.1641 185.488,67.7615 182.043,65.8107L 179.204,67.1187 Z "/>
		<path fill="#808080" fill-opacity="1" stroke-width="0.2" stroke-linejoin="round" d="M 200.835,115.817L 195.321,115.385C 195.355,115.694 195.389,116.004 195.422,116.318C 195.276,118.441 195.088,120.548 194.852,122.636L 200.982,123.487C 201.065,120.938 201.017,118.379 200.835,115.817 Z "/>
		<path fill="#808080" fill-opacity="1" stroke-width="0.2" stroke-linejoin="round" d="M 111.631,206.068C 128.327,206.068 143.673,201.637 156.763,194.144L 153.029,187.545C 142.796,192.588 130.289,196.216 115.069,198.067C 112.067,198.067 109.096,197.926 106.164,197.649L 106.025,205.912C 107.882,206.015 109.751,206.068 111.631,206.068 Z "/>
		<path fill="#808080" fill-opacity="1" stroke-width="0.2" stroke-linejoin="round" d="M 12.4642,108.651C 12.4642,123.267 15.7289,137.061 21.5502,149.42L 31.6301,144.671C 27.3109,134.637 24.9224,123.635 24.9224,112.068C 24.9224,107.675 25.26,103.392 25.9114,99.235L 13.0605,97.7942C 12.6666,101.359 12.4642,104.982 12.4642,108.651 Z "/>
		<path fill="#808080" fill-opacity="1" stroke-width="0.2" stroke-linejoin="round" d="M 172.422,55.0677C 176.696,52.772 186.634,46.3999 184.481,43.9124C 182.359,41.4612 180.118,39.117 177.769,36.8888L 165.581,49.675C 167.854,51.3907 170.126,53.1911 172.422,55.0677 Z "/>
		<path fill="#808080" fill-opacity="1" stroke-width="0.2" stroke-linejoin="round" d="M 96.3116,11.25L 98.7578,30.5749C 101.074,30.219 103.421,29.942 105.794,29.7469L 105.088,10.3346C 102.127,10.5089 99.1999,10.8161 96.3116,11.25 Z "/>
		<path fill="#808080" fill-opacity="1" stroke-width="0.2" stroke-linejoin="round" d="M 20.8815,68.8756L 33.9803,74.8138C 45.1665,53.5578 65.8113,38.1201 90.7957,32.136L 86.4022,13.2702C 57.1599,20.8333 33.0021,41.6038 20.8815,68.8756 Z "/>
	</g>
	<ellipse fill="#12508C" fill-opacity="1" stroke-width="0.2" stroke-linejoin="round" cx="109.297" cy="113.401" rx="76.5" ry="77"/>
	<path fill="#FFFFFF" fill-opacity="1" stroke-width="0.2" stroke-linejoin="round" d="M 77.7968,108.561L 139.463,83.2278L 113.463,145.895L 77.7968,108.561 Z "/>
	<g>
		<path fill="#000000" fill-opacity="1" stroke-width="0.2" stroke-linejoin="round" d="M 200.63,54.2105L 195.03,54.2105L 195.03,70.1704L 190.55,70.1704L 190.55,54.2105L 184.95,54.2105L 184.95,50.5705L 200.63,50.5705L 200.63,54.2105 Z "/>
		<path fill="#000000" fill-opacity="1" stroke-width="0.2" stroke-linejoin="round" d="M 225.55,70.1704L 221.07,70.1704L 221.07,58.4411C 221.07,57.1751 221.127,55.7766 221.24,54.2454L 221.131,54.2454C 220.903,55.45 220.698,56.3162 220.514,56.8443L 215.92,70.1704L 212.311,70.1704L 207.634,56.9798C 207.506,56.6241 207.3,55.7126 207.017,54.2454L 206.895,54.2454C 207.011,56.1792 207.07,57.8752 207.07,59.3335L 207.07,70.1704L 203.15,70.1704L 203.15,50.5705L 209.559,50.5705L 213.562,62.1905C 213.883,63.1178 214.116,64.0513 214.262,64.9904L 214.345,64.9904C 214.59,63.9054 214.85,62.9619 215.124,62.1598L 219.127,50.5705L 225.55,50.5705L 225.55,70.1704 Z "/>
	</g>
</svg>
